X:3115
T: Orsavisan
S: Utlärd av Anders Jakobsson
Z: Karin Arén
M: 4/4
L: 1/8
K: Gm
uD2 |: G>A Bc d2 (Bd) | vd>c (3(B/c/B/)A G2 GG | c2 cc f2 {gf}(ec) | vd6 uD2|
G>A Bc d2 (Bd) | v{e}d>c B(3(A/c/B/) G2 GG | uc2 cc f2 {gf}(ec) | vd6 ug2 | 
vd2 (cA) B2 (ce) | vd>c BA G2 GA | uB2 (dB) A2 (D^F) | uG6 vg2 | 
ud2 B(c/A/) B2 (ce) | vd>c BTA G2 (GA) | v[G,2D2B2] (dTB) A2 (D^F) | vG6 uD2 :|
(:musicend:)



(:music:)
